swiss/communes/0182.svg

<?xml version="1.0" encoding="UTF-8" standalone="no"?>
<!-- Created with Inkscape (http://www.inkscape.org/) -->
<svg
   xmlns:svg="http://www.w3.org/2000/svg"
   xmlns="http://www.w3.org/2000/svg"
   version="1.0"
   width="223.95522"
   height="262.32858"
   id="svg2780">
  <defs
     id="defs2782" />
  <g
     transform="translate(-12.917001,-793.29466)"
     id="layer1">
    <path
       d="M 13.917001,794.29466 L 17.952546,963.81099 C 20.835071,1084.894 228.95413,1084.894 231.83667,963.81099 L 235.87222,794.29466 L 13.917001,794.29466 z "
       style="fill:#fdeb00;fill-opacity:1;fill-rule:evenodd;stroke:#000000;stroke-width:2;stroke-linecap:butt;stroke-miterlimit:4;stroke-dashoffset:0;stroke-opacity:1"
       id="path3282" />
    <path
       d="M 112.4166,852.75123 C 112.17756,844.76639 107.07854,837.25104 99.721628,832.69543 C 92.419934,828.17401 77.344917,830.02008 71.605416,836.94889 C 65.916945,843.81609 63.65158,859.24169 74.863751,864.36405 C 86.122542,869.50771 93.394445,858.02563 91.205349,850.02553 C 89.007344,841.99287 83.774085,841.79908 76.029296,842.15923 C 80.149544,835.474 87.469931,834.98758 92.767886,840.50935 C 95.364204,839.13437 101.31837,843.06671 100.53527,847.0781 L 98.964664,863.37018 C 99.20187,866.96245 96.166409,870.26385 91.303976,870.41296 C 90.547438,874.59609 85.895011,877.86597 80.209864,874.63752 C 78.652582,877.11013 72.082432,879.05195 67.489286,874.29442 C 61.882607,876.00301 57.385643,872.15194 57.192533,868.00735 C 51.753289,866.71893 50.027754,860.26582 50.699093,856.29349 C 46.20202,851.57465 47.701049,845.26894 50.808449,842.10188 C 48.760556,835.49207 50.693806,829.95639 56.165495,828.65353 C 56.813194,821.77507 62.084576,817.68926 67.173142,818.03269 C 69.928633,811.78923 76.12263,809.67035 82.409794,811.53156 C 86.507983,806.45909 92.952876,807.16554 97.782193,810.53358 C 104.82925,807.69507 110.76518,810.03325 113.81298,816.1168 C 122.99733,814.77584 126.46536,821.88234 125.97407,827.36949 C 132.04225,828.90684 134.68029,831.83152 133.51541,838.59823 L 112.4166,852.75123 z "
       style="opacity:1;color:#000000;fill:#000000;fill-opacity:1;fill-rule:evenodd;stroke:#fdeb00;stroke-width:1px;stroke-linecap:round;stroke-linejoin:round;marker:none;marker-start:none;marker-mid:none;marker-end:none;stroke-miterlimit:4;stroke-dasharray:none;stroke-dashoffset:0;stroke-opacity:1;visibility:visible;display:inline;overflow:visible;enable-background:accumulate"
       id="path3271" />
    <path
       d="M 104.97979,864.01076 C 89.714919,863.58902 82.991296,856.42519 78.586238,849.72951 C 91.851609,841.73661 105.25152,848.49609 111.88848,852.72495 L 104.97979,864.01076 z "
       style="opacity:1;color:#000000;fill:#000000;fill-opacity:1;fill-rule:evenodd;stroke:#fdeb00;stroke-width:1px;stroke-linecap:round;stroke-linejoin:round;marker:none;marker-start:none;marker-mid:none;marker-end:none;stroke-miterlimit:4;stroke-dasharray:none;stroke-dashoffset:0;stroke-opacity:1;visibility:visible;display:inline;overflow:visible;enable-background:accumulate"
       id="path3263" />
    <path
       d="M 94.620649,851.57963 C 105.19279,853.34166 107.57152,856.16089 108.36443,856.9538"
       style="opacity:1;color:#000000;fill:none;fill-opacity:1;fill-rule:evenodd;stroke:#fdeb00;stroke-width:1px;stroke-linecap:round;stroke-linejoin:round;marker:none;marker-start:none;marker-mid:none;marker-end:none;stroke-miterlimit:4;stroke-dasharray:none;stroke-dashoffset:0;stroke-opacity:1;visibility:visible;display:inline;overflow:visible;enable-background:accumulate"
       id="path3265" />
    <path
       d="M 105.00773,864.12649 L 120.69859,908.58108 C 114.7614,927.78846 94.796852,918.44842 78.410036,956.50812 C 74.693597,957.63464 69.71199,963.89243 70.833335,967.25646 C 66.503172,970.65533 64.087558,976.61829 68.1903,982.23366 C 62.898624,985.98725 66.453112,994.10162 68.263286,996.36007 C 65.641418,999.73106 68.127898,1007.712 71.361942,1008.8402 C 70.250711,1015.4566 73.37567,1022.0729 78.494132,1022.7088 C 80.736821,1029.1877 82.719808,1031.4278 87.963265,1032.0534 C 93.21994,1032.6806 116.92445,1034.7071 130.81193,1030.8682 C 144.58362,1027.0612 170.9454,1018.8568 172.06412,1011.447 C 173.18547,1004.0197 167.74462,999.32528 167.74462,999.32528 C 169.67938,995.09642 168.74849,990.99216 167.56841,986.63871 C 170.18661,983.24466 171.43428,978.10628 170.43926,973.21711 C 173.60744,969.62547 175.2805,963.41736 173.83871,959.20276 C 176.90368,954.57701 177.60136,949.70208 176.05635,944.95175 C 178.6372,941.29425 178.72616,935.51867 177.81837,932.23495 C 178.91835,928.54895 181.01506,923.9908 179.12478,919.80642 C 181.20552,915.29815 179.92222,910.41609 178.14055,905.40944 L 157.19385,876.13848 C 167.89329,883.31676 180.34695,884.38919 193.06614,883.91276 C 189.73816,875.36241 180.30507,866.56288 166.5112,863.74385 L 142.19528,838.80496 C 130.11168,834.85523 126.55602,841.13834 126.55602,841.13834 C 122.49084,840.84101 119.9208,843.16014 118.97047,846.10225 C 115.82193,846.39347 112.55654,848.8034 110.89539,851.58589 C 108.52811,852.33345 104.53361,856.43968 105.00773,864.12649 z "
       style="fill:#000000;fill-opacity:1;fill-rule:evenodd;stroke:#fdeb00;stroke-width:1px;stroke-linecap:round;stroke-linejoin:round;stroke-opacity:1"
       id="path2278" />
    <path
       d="M 79.117101,951.93953 C 77.497381,958.54301 78.244944,965.64486 79.74007,968.63511 C 77.123599,972.3826 77.580443,978.47802 80.612227,981.71746 C 80.196914,988.03022 81.401322,993.8446 83.851668,998.03926 C 85.679045,990.5221 91.119643,985.24762 97.183211,980.34693"
       style="opacity:1;color:#000000;fill:none;fill-opacity:1;fill-rule:evenodd;stroke:#fdeb00;stroke-width:1px;stroke-linecap:round;stroke-linejoin:round;marker:none;marker-start:none;marker-mid:none;marker-end:none;stroke-miterlimit:4;stroke-dasharray:none;stroke-dashoffset:0;stroke-opacity:1;visibility:visible;display:inline;overflow:visible;enable-background:accumulate"
       id="path3255" />
    <path
       d="M 168.44942,871.931 C 178.22865,874.39784 186.06966,879.4196 186.86257,880.21251"
       style="opacity:1;color:#000000;fill:none;fill-opacity:1;fill-rule:evenodd;stroke:#fdeb00;stroke-width:1px;stroke-linecap:round;stroke-linejoin:round;marker:none;marker-start:none;marker-mid:none;marker-end:none;stroke-miterlimit:4;stroke-dasharray:none;stroke-dashoffset:0;stroke-opacity:1;visibility:visible;display:inline;overflow:visible;enable-background:accumulate"
       id="path3267" />
    <path
       d="M 152.011,862.87169 C 162.91416,846.73926 174.38174,846.0061 184.5443,848.97309 C 195.58458,852.19634 199.64871,861.84695 199.13,871.52698 C 198.61098,881.21288 192.15427,891.66338 180.07878,890.38063 C 167.88008,889.08479 163.88069,881.32134 164.32378,872.03421 C 164.7411,863.28741 173.00925,861.08045 179.47352,861.02783 C 186.26357,860.97256 192.01293,867.13398 194.72495,872.80316 C 195.81725,870.62292 196.85641,868.57906 196.1775,865.38926 C 195.4986,862.19945 191.79521,859.5097 190.69001,858.5271 C 189.5136,857.48119 189.81399,856.30461 188.43199,854.96997 C 187.04998,853.63533 184.16972,852.50487 180.60738,853.60596 C 179.67833,850.8188 172.78322,851.22442 170.74005,853.95836 C 167.62714,853.24988 162.39614,853.66275 161.40133,858.18722 C 156.14183,858.82423 153.00042,863.07446 153.47223,869.81657 C 150.04234,872.88672 149.60269,877.20282 153.64843,881.26972 C 151.14403,885.35088 151.00692,890.42879 157.34868,892.01807 C 156.84836,899.32981 163.4499,901.03483 166.6874,900.12337 C 169.58135,904.66209 174.5934,906.95812 177.61195,903.64742 C 181.97965,908.45497 187.2195,906.40986 189.5937,903.11881 C 195.08987,904.51612 198.96633,902.05101 201.22306,898.71375 C 205.3541,898.37214 209.36054,894.16812 209.75376,890.33788 C 214.40994,887.88357 214.82993,883.56035 213.38102,879.8601 C 216.84633,877.2758 217.66861,872.92948 214.79064,868.93556 C 218.90203,863.88443 217.37494,857.77608 212.85241,854.31077 C 214.26203,847.43888 210.20937,841.448 203.68989,840.74319 C 201.04685,832.40295 196.4656,830.22979 189.0651,831.40447 C 185.95219,826.23586 177.90562,824.59131 172.85448,827.52801 C 167.68588,825.23738 161.28386,825.23738 156.29146,830.17105 C 147.54008,829.52497 142.84135,834.69358 142.19528,840.91939 C 119.38554,847.19855 132.70802,865.56329 152.011,862.87169 z "
       style="opacity:1;color:#000000;fill:#000000;fill-opacity:1;fill-rule:evenodd;stroke:#fdeb00;stroke-width:1px;stroke-linecap:round;stroke-linejoin:round;marker:none;marker-start:none;marker-mid:none;marker-end:none;stroke-miterlimit:4;stroke-dasharray:none;stroke-dashoffset:0;stroke-opacity:1;visibility:visible;display:inline;overflow:visible;enable-background:accumulate"
       id="path3269" />
    <path
       d="M 131.19382,861.48864 C 130.97037,861.97669 126.90569,863.17104 122.51992,862.51255 C 119.47537,864.93842 117.28995,865.06282 113.78076,864.25469 C 109.49925,865.389 106.17201,864.68605 104.95186,863.89503 C 95.974087,871.19112 76.261001,897.47875 74.357382,902.2378 C 72.242954,907.52387 77.881428,908.75729 79.291047,906.64286 C 80.700666,904.52843 83.519903,901.00438 83.519903,901.00438 C 83.519903,901.00438 81.581677,903.64742 79.819654,906.11425 C 78.057631,908.58108 76.648012,906.99526 76.824214,910.34311 C 77.000417,913.69095 80.172059,921.44385 83.696105,919.68183 C 87.220152,917.91981 96.030268,911.92893 96.030268,911.92893 C 96.030268,911.92893 88.277366,917.3912 85.281926,918.97702 C 82.286487,920.56284 91.272805,925.67271 94.796852,923.38208 C 98.320898,921.09145 100.78773,915.80538 103.78317,915.62918 C 106.77861,915.45297 136.00616,909.35196 143.07628,906.11425 C 150.1464,902.87654 150.65299,897.83275 150.65299,897.83275"
       style="fill:#000000;fill-opacity:1;fill-rule:evenodd;stroke:#fdeb00;stroke-width:1px;stroke-linecap:round;stroke-linejoin:round;stroke-opacity:1"
       id="path3253" />
    <path
       d="M 127.03413,874.67623 C 123.738,881.96807 116.90006,879.20978 116.73358,876.86515 C 116.56087,874.43286 119.75006,869.29037 127.03413,874.67623 z "
       style="opacity:1;color:#000000;fill:none;fill-opacity:1;fill-rule:evenodd;stroke:#fdeb00;stroke-width:1px;stroke-linecap:round;stroke-linejoin:round;marker:none;marker-start:none;marker-mid:none;marker-end:none;stroke-miterlimit:4;stroke-dasharray:none;stroke-dashoffset:0;stroke-opacity:1;visibility:visible;display:inline;overflow:visible;enable-background:accumulate"
       id="path3257" />
    <path
       d="M 113.2981,881.18162 L 117.26265,878.18618"
       style="opacity:1;color:#000000;fill:none;fill-opacity:1;fill-rule:evenodd;stroke:#fdeb00;stroke-width:1px;stroke-linecap:round;stroke-linejoin:round;marker:none;marker-start:none;marker-mid:none;marker-end:none;stroke-miterlimit:4;stroke-dasharray:none;stroke-dashoffset:0;stroke-opacity:1;visibility:visible;display:inline;overflow:visible;enable-background:accumulate"
       id="path3259" />
    <path
       d="M 124.16847,875.42379 L 129.24441,875.01454"
       style="opacity:1;color:#000000;fill:none;fill-opacity:1;fill-rule:evenodd;stroke:#fdeb00;stroke-width:1px;stroke-linecap:round;stroke-linejoin:round;marker:none;marker-start:none;marker-mid:none;marker-end:none;stroke-miterlimit:4;stroke-dasharray:none;stroke-dashoffset:0;stroke-opacity:1;visibility:visible;display:inline;overflow:visible;enable-background:accumulate"
       id="path3261" />
  </g>
</svg>

<svg xmlns="http://www.w3.org/2000/svg" version="1.0" width="223.955" height="262.329"><path d="m13.917 794.295 4.036 169.516c2.882 121.083 211.001 121.083 213.884 0l4.035-169.516H13.917z" style="fill:#fdeb00;fill-opacity:1;fill-rule:evenodd;stroke:#000;stroke-width:2;stroke-linecap:butt;stroke-miterlimit:4;stroke-dashoffset:0;stroke-opacity:1" transform="translate(-12.917 -793.295)"/><path d="M112.417 852.751c-.24-7.985-5.338-15.5-12.695-20.056-7.302-4.521-22.377-2.675-28.117 4.254-5.688 6.867-7.953 22.293 3.259 27.415 11.259 5.144 18.53-6.338 16.341-14.338-2.198-8.033-7.43-8.227-15.176-7.867 4.12-6.685 11.44-7.171 16.739-1.65 2.596-1.375 8.55 2.558 7.767 6.57l-1.57 16.291c.237 3.592-2.799 6.894-7.661 7.043-.757 4.183-5.409 7.453-11.094 4.225-1.557 2.472-8.128 4.414-12.72-.344-5.607 1.709-10.104-2.142-10.297-6.287-5.44-1.288-7.165-7.741-6.494-11.714-4.497-4.718-2.998-11.024.11-14.191-2.048-6.61-.115-12.146 5.356-13.448.648-6.879 5.92-10.965 11.008-10.621 2.756-6.244 8.95-8.363 15.237-6.501 4.098-5.073 10.543-4.366 15.372-.998 7.047-2.839 12.983-.5 16.031 5.583 9.184-1.341 12.652 5.765 12.161 11.252 6.068 1.538 8.706 4.463 7.541 11.23l-21.098 14.152z" style="opacity:1;color:#000;fill:#000;fill-opacity:1;fill-rule:evenodd;stroke:#fdeb00;stroke-width:1px;stroke-linecap:round;stroke-linejoin:round;marker:none;marker-start:none;marker-mid:none;marker-end:none;stroke-miterlimit:4;stroke-dasharray:none;stroke-dashoffset:0;stroke-opacity:1;visibility:visible;display:inline;overflow:visible;enable-background:accumulate" transform="translate(-12.917 -793.295)"/><path d="M104.98 864.01c-15.265-.421-21.989-7.585-26.394-14.28 13.266-7.993 26.666-1.234 33.302 2.995l-6.908 11.286z" style="opacity:1;color:#000;fill:#000;fill-opacity:1;fill-rule:evenodd;stroke:#fdeb00;stroke-width:1px;stroke-linecap:round;stroke-linejoin:round;marker:none;marker-start:none;marker-mid:none;marker-end:none;stroke-miterlimit:4;stroke-dasharray:none;stroke-dashoffset:0;stroke-opacity:1;visibility:visible;display:inline;overflow:visible;enable-background:accumulate" transform="translate(-12.917 -793.295)"/><path d="M94.62 851.58c10.573 1.762 12.952 4.58 13.744 5.374" style="opacity:1;color:#000;fill:none;fill-opacity:1;fill-rule:evenodd;stroke:#fdeb00;stroke-width:1px;stroke-linecap:round;stroke-linejoin:round;marker:none;marker-start:none;marker-mid:none;marker-end:none;stroke-miterlimit:4;stroke-dasharray:none;stroke-dashoffset:0;stroke-opacity:1;visibility:visible;display:inline;overflow:visible;enable-background:accumulate" transform="translate(-12.917 -793.295)"/><path d="m105.008 864.126 15.69 44.455c-5.937 19.207-25.901 9.867-42.288 47.927-3.716 1.127-8.698 7.384-7.577 10.748-4.33 3.4-6.745 9.362-2.643 14.978-5.291 3.753-1.737 11.868.073 14.126-2.622 3.371-.135 11.352 3.099 12.48-1.111 6.617 2.014 13.233 7.132 13.869 2.243 6.479 4.226 8.719 9.47 9.344 5.256.628 28.96 2.654 42.848-1.185 13.772-3.807 40.133-12.011 41.252-19.421 1.121-7.427-4.32-12.122-4.32-12.122 1.935-4.229 1.004-8.333-.176-12.686 2.619-3.394 3.866-8.533 2.871-13.422 3.168-3.592 4.841-9.8 3.4-14.014 3.065-4.626 3.762-9.5 2.217-14.251 2.581-3.658 2.67-9.433 1.762-12.717 1.1-3.686 3.197-8.244 1.307-12.429 2.08-4.508.797-9.39-.984-14.397l-20.947-29.27c10.7 7.178 23.153 8.25 35.872 7.774-3.328-8.55-12.76-17.35-26.555-20.17l-24.316-24.938c-12.083-3.95-15.639 2.333-15.639 2.333-4.065-.297-6.635 2.022-7.586 4.964-3.148.291-6.413 2.701-8.075 5.484-2.367.747-6.361 4.854-5.887 12.54z" style="fill:#000;fill-opacity:1;fill-rule:evenodd;stroke:#fdeb00;stroke-width:1px;stroke-linecap:round;stroke-linejoin:round;stroke-opacity:1" transform="translate(-12.917 -793.295)"/><path d="M79.117 951.94c-1.62 6.603-.872 13.705.623 16.695-2.616 3.748-2.16 9.843.872 13.082-.415 6.313.79 12.128 3.24 16.322 1.827-7.517 7.268-12.791 13.331-17.692" style="opacity:1;color:#000;fill:none;fill-opacity:1;fill-rule:evenodd;stroke:#fdeb00;stroke-width:1px;stroke-linecap:round;stroke-linejoin:round;marker:none;marker-start:none;marker-mid:none;marker-end:none;stroke-miterlimit:4;stroke-dasharray:none;stroke-dashoffset:0;stroke-opacity:1;visibility:visible;display:inline;overflow:visible;enable-background:accumulate" transform="translate(-12.917 -793.295)"/><path d="M168.45 871.931c9.779 2.467 17.62 7.489 18.413 8.282" style="opacity:1;color:#000;fill:none;fill-opacity:1;fill-rule:evenodd;stroke:#fdeb00;stroke-width:1px;stroke-linecap:round;stroke-linejoin:round;marker:none;marker-start:none;marker-mid:none;marker-end:none;stroke-miterlimit:4;stroke-dasharray:none;stroke-dashoffset:0;stroke-opacity:1;visibility:visible;display:inline;overflow:visible;enable-background:accumulate" transform="translate(-12.917 -793.295)"/><path d="M152.011 862.872c10.903-16.133 22.37-16.866 32.533-13.899 11.04 3.223 15.105 12.874 14.586 22.554-.519 9.686-6.976 20.136-19.051 18.854-12.199-1.296-16.198-9.06-15.755-18.347.417-8.747 8.685-10.954 15.15-11.006 6.79-.055 12.539 6.106 15.251 11.775 1.092-2.18 2.131-4.224 1.453-7.414-.68-3.19-4.383-5.88-5.488-6.862-1.176-1.046-.876-2.222-2.258-3.557-1.382-1.335-4.262-2.465-7.825-1.364-.929-2.787-7.824-2.382-9.867.352-3.113-.708-8.344-.295-9.339 4.23-5.26.636-8.4 4.886-7.929 11.629-3.43 3.07-3.87 7.386.176 11.453-2.504 4.08-2.641 9.159 3.7 10.748-.5 7.312 6.102 9.017 9.34 8.105 2.893 4.54 7.905 6.835 10.924 3.524 4.368 4.808 9.608 2.763 11.982-.528 5.496 1.397 9.372-1.068 11.63-4.405 4.13-.342 8.137-4.546 8.53-8.376 4.656-2.454 5.076-6.778 3.627-10.478 3.465-2.584 4.288-6.93 1.41-10.924 4.111-5.052 2.584-11.16-1.939-14.625 1.41-6.872-2.643-12.863-9.162-13.568-2.643-8.34-7.224-10.513-14.625-9.339-3.113-5.168-11.16-6.813-16.21-3.876-5.17-2.29-11.571-2.29-16.564 2.643-8.75-.646-13.45 4.523-14.096 10.748-22.81 6.28-9.487 24.644 9.816 21.953z" style="opacity:1;color:#000;fill:#000;fill-opacity:1;fill-rule:evenodd;stroke:#fdeb00;stroke-width:1px;stroke-linecap:round;stroke-linejoin:round;marker:none;marker-start:none;marker-mid:none;marker-end:none;stroke-miterlimit:4;stroke-dasharray:none;stroke-dashoffset:0;stroke-opacity:1;visibility:visible;display:inline;overflow:visible;enable-background:accumulate" transform="translate(-12.917 -793.295)"/><path d="M131.194 861.489c-.224.488-4.288 1.682-8.674 1.024-3.045 2.425-5.23 2.55-8.74 1.742-4.28 1.134-7.608.431-8.828-.36-8.978 7.296-28.691 33.584-30.595 38.343-2.114 5.286 3.524 6.52 4.934 4.405 1.41-2.115 4.229-5.639 4.229-5.639s-1.938 2.643-3.7 5.11c-1.762 2.467-3.172.881-2.996 4.23.176 3.347 3.348 11.1 6.872 9.338 3.524-1.762 12.334-7.753 12.334-7.753s-7.753 5.462-10.748 7.048c-2.996 1.586 5.99 6.696 9.515 4.405 3.524-2.29 5.99-7.577 8.986-7.753 2.996-.176 32.223-6.277 39.293-9.515 7.07-3.237 7.577-8.281 7.577-8.281" style="fill:#000;fill-opacity:1;fill-rule:evenodd;stroke:#fdeb00;stroke-width:1px;stroke-linecap:round;stroke-linejoin:round;stroke-opacity:1" transform="translate(-12.917 -793.295)"/><path d="M127.034 874.676c-3.296 7.292-10.134 4.534-10.3 2.19-.173-2.433 3.016-7.576 10.3-2.19z" style="opacity:1;color:#000;fill:none;fill-opacity:1;fill-rule:evenodd;stroke:#fdeb00;stroke-width:1px;stroke-linecap:round;stroke-linejoin:round;marker:none;marker-start:none;marker-mid:none;marker-end:none;stroke-miterlimit:4;stroke-dasharray:none;stroke-dashoffset:0;stroke-opacity:1;visibility:visible;display:inline;overflow:visible;enable-background:accumulate" transform="translate(-12.917 -793.295)"/><path d="m113.298 881.182 3.965-2.996" style="opacity:1;color:#000;fill:none;fill-opacity:1;fill-rule:evenodd;stroke:#fdeb00;stroke-width:1px;stroke-linecap:round;stroke-linejoin:round;marker:none;marker-start:none;marker-mid:none;marker-end:none;stroke-miterlimit:4;stroke-dasharray:none;stroke-dashoffset:0;stroke-opacity:1;visibility:visible;display:inline;overflow:visible;enable-background:accumulate" transform="translate(-12.917 -793.295)"/><path d="m124.168 875.424 5.076-.41" style="opacity:1;color:#000;fill:none;fill-opacity:1;fill-rule:evenodd;stroke:#fdeb00;stroke-width:1px;stroke-linecap:round;stroke-linejoin:round;marker:none;marker-start:none;marker-mid:none;marker-end:none;stroke-miterlimit:4;stroke-dasharray:none;stroke-dashoffset:0;stroke-opacity:1;visibility:visible;display:inline;overflow:visible;enable-background:accumulate" transform="translate(-12.917 -793.295)"/></svg>
